src/topics/icons/codebase.svg

<svg height="93" preserveAspectRatio="xMidYMid" viewBox="0 0 512 93" width="512" xmlns="http://www.w3.org/2000/svg"><g fill="#1b6db2"><path d="m456.119668 54.6038781h47.796121c-.141828-6.3822715-2.127423-12.0554016-6.382271-17.3030471-4.113019-5.2476454-9.927978-7.800554-17.586704-7.800554-7.233241 0-12.906371 2.5529086-17.161218 7.6587258-4.11302 5.2476454-6.382272 11.0626038-6.665928 17.4448753zm-7.516898 3.2620499c0-9.6443214 2.978393-17.7285319 8.93518-24.3944599 5.956787-6.6659279 13.473684-10.0698061 22.550693-10.0698061 9.644321 0 17.161218 3.2620499 22.69252 9.9279779s8.367867 14.8919667 8.367867 24.9617728v1.8437674h-55.029362c.283656 7.5168975 2.836565 13.6155124 7.516897 18.5795013 4.680333 4.963989 10.778947 7.5168975 18.295845 7.5168975 8.793352 0 15.884765-2.9783933 21.557895-9.0770083l3.687534 4.6803324c-6.807756 7.0914128-15.459279 10.6371192-25.670914 10.6371192-9.644321 0-17.444875-3.2620499-23.54349-9.6443214-6.098615-6.3822714-9.360665-14.7501385-9.360665-24.9617728zm-321.80831 0c0 4.8221606 1.418282 8.6515235 4.113019 11.6299169 2.694737 2.9783933 6.240443 4.3966759 10.353463 4.3966759 2.269252 0 4.538504-.567313 6.949584-1.7019391 2.411081-1.134626 4.254848-2.5529086 5.673131-4.2548476v-20.1396122c-1.418283-1.7019391-3.26205-3.1202216-5.673131-4.2548477-2.41108-1.134626-4.680332-1.5601108-6.949584-1.5601108-4.254848 0-7.658726 1.4182826-10.353463 4.3966759-2.836565 2.8365651-4.113019 6.665928-4.113019 11.4880887zm264.226039 24.1108033 4.254847-5.2476454c2.269252 2.8365651 5.247646 5.1058171 8.93518 6.9495845 3.687535 1.8437673 7.800554 2.6947368 12.339058 2.6947368 5.389474 0 9.644322-1.2764543 12.764543-3.6875346 3.120222-2.5529086 4.822161-5.6731302 4.822161-9.6443214 0-3.2620498-1.418282-5.8149584-4.254848-7.800554-2.836565-1.8437673-6.240443-3.4038781-10.353462-4.2548476-3.971191-.9927978-8.084211-1.9855956-12.19723-3.1202216-4.113019-1.1346261-7.516898-2.9783934-10.495291-5.6731302-2.836565-2.6947369-4.254848-6.2404432-4.254848-10.4952909 0-5.2476454 2.127424-9.502493 6.382272-13.0481994s9.927978-5.2476455 17.161219-5.2476455c9.927978 0 17.728532 3.2620499 23.54349 9.6443214l-3.971191 4.9639889c-4.254848-5.8149584-10.778947-8.6515235-19.572299-8.6515235-4.963989 0-8.93518 1.134626-11.913574 3.4038781-2.978393 2.269252-4.396676 5.1058171-4.396676 8.6515235 0 2.9783934 1.418283 5.3894737 4.254848 7.0914128 2.836565 1.701939 6.240443 2.9783933 10.353463 3.9711911 3.971191.9927978 8.08421 1.9855956 12.055401 3.1202216s7.516898 3.2620499 10.353463 6.098615 4.254848 6.6659279 4.254848 11.3462603c0 5.6731302-2.127424 10.2116344-6.382272 13.899169s-10.353462 5.3894737-18.154017 5.3894737c-10.920775.1418283-19.288642-3.4038781-25.529085-10.3534626zm-186.645984-31.4858726h27.089197c-.283657-2.6947368-1.560111-5.1058171-3.829363-7.0914127-2.127424-2.1274238-5.389474-3.1202216-9.78615-3.1202216-4.113019 0-7.375069.9927978-9.502493 2.9783933-2.269252 2.1274239-3.545706 4.5385042-3.971191 7.233241zm132.46759 20.1396122c0 4.6803324 1.701939 8.6515236 4.963989 11.6299169 3.26205 2.9783934 7.658726 4.5385042 13.0482 4.5385042 8.651523 0 15.317451-2.9783934 19.855955-9.0770083v-14.3246538c-4.538504-6.0986149-11.204432-9.0770083-19.855955-9.0770083-5.389474 0-9.644322 1.5601108-13.0482 4.6803324-3.26205 2.9783934-4.963989 6.9495845-4.963989 11.6299169zm-326.7722989-37.5844875c6.8077562-6.3822715 15.3174515-9.6443214 25.6709141-9.6443214 6.5240997 0 12.0554017 1.1346261 16.5939058 3.5457064 4.5385042 2.4110804 7.9423823 5.2476455 10.2116344 8.6515236l-13.331856 12.6227146c-2.8365651-4.1130193-6.9495845-6.2404432-12.4808864-6.2404432-4.3966759 0-8.0842105 1.4182826-11.0626039 4.2548477-2.8365651 2.8365651-4.3966759 6.665928-4.3966759 11.6299169s1.4182826 8.7933518 4.3966759 11.6299169c2.8365651 2.8365651 6.5240998 4.3966759 11.0626039 4.3966759 5.2476454 0 9.3606648-2.1274238 12.4808864-6.3822715l13.6155125 12.7645429c-2.2692521 3.4038782-5.6731302 6.2404433-10.2116344 8.6515236-4.5385041 2.4110803-10.069806 3.5457064-16.5939058 3.5457064-10.3534626 0-18.8631579-3.2620499-25.6709141-9.6443214-6.94958448-6.5240997-10.3534626-14.7501385-10.3534626-24.9617728 0-10.2116344 3.40387812-18.4376732 10.0698061-24.8199446zm319.3972299 37.4426593c0-6.8077563 2.269252-12.19723 6.807756-16.0265928 4.538504-3.8293629 9.927978-5.8149585 16.168421-5.8149585 9.218837 0 16.735734 3.1202216 22.408865 9.3606648v-13.3318559c0-4.6803324-1.701939-8.3678671-4.963989-11.0626039s-7.516898-4.1130194-12.622715-4.1130194c-8.226039 0-15.033795 3.2620499-20.706925 9.6443213l-3.971191-4.9639889c6.807756-7.3750692 15.317451-11.0626039 25.387257-11.0626039 7.091413 0 12.906371 1.7019391 17.303047 5.3894737 4.396676 3.5457064 6.665928 8.7933518 6.665928 15.8847646v46.3778393h-7.091412v-7.800554c-5.673131 6.2404432-13.190028 9.3606648-22.408865 9.5024931-6.098615 0-11.488088-1.9855956-16.026593-5.9567867-4.680332-3.9711912-6.949584-9.2188366-6.949584-16.0265928zm-138.14072-37.1590028c6.5241-6.665928 14.891967-9.9279779 24.961773-9.9279779 9.927977 0 18.012188 3.4038782 24.252631 10.0698061 6.240443 6.665928 9.360665 15.6011081 9.360665 26.663712v4.8221606h-46.803324c.850969 3.2620499 2.552909 5.8149585 5.389474 7.800554 2.836565 1.9855956 6.524099 2.9783934 11.062604 2.9783934 2.552908 0 5.389473-.567313 8.509695-1.5601108 3.120221-.9927978 5.67313-2.4110803 7.516897-3.9711912l9.218837 13.7573408c-3.120222 2.8365651-7.233241 4.9639889-12.19723 6.3822714-4.963989 1.5601108-10.069806 2.2692521-15.317452 2.2692521-10.353462 0-18.863157-3.1202216-25.670914-9.5024931-6.807756-6.3822714-10.211634-14.7501385-10.211634-25.1036011.141828-9.9279778 3.403878-18.0121883 9.927978-24.6781163zm78.00554 40.9883656c1.985596 3.2620499 4.963989 6.098615 9.077008 8.3678671 3.971191 2.2692521 8.226039 3.4038781 12.622715 3.4038781 7.233241 0 12.764543-2.6947368 16.877562-7.9423823 4.11302-5.2476454 6.098615-11.9135734 6.098615-20.1396122 0-8.2260387-1.985595-15.033795-6.098615-20.2814404-4.113019-5.2476454-9.644321-7.9423823-16.877562-7.9423823-4.396676 0-8.509695 1.1346261-12.622715 3.5457064-4.113019 2.4110803-7.091412 5.2476454-9.077008 8.5096953zm-155.869252-41.5556786c5.389474-6.2404432 12.339058-9.3606649 20.848753-9.3606649 7.942383 0 14.466482 3.1202217 19.430471 9.5024931v-32.9041551h20.848754v90.7700831h-20.848754v-7.6587258c-5.389473 6.098615-11.913573 9.2188366-19.430471 9.3606649-8.367867 0-15.317451-3.1202216-20.848753-9.2188366-2.836565-3.2620499-4.963989-7.0914127-6.382272-11.6299169l14.040998-14.0409972v-1.1346261l-13.473685-13.6155124c1.418283-3.8293629 3.26205-7.233241 5.814959-10.0698061zm148.919667 58.0077562v-90.7700831h7.091413v35.7407202c5.814959-8.2260388 13.473684-12.1972299 22.834349-12.3390582 8.793352 0 15.884765 3.1202217 21.274238 9.5024931 5.389474 6.3822715 8.084211 14.7501385 8.084211 25.1036011s-2.694737 18.7213297-8.084211 25.1036011c-5.389473 6.2404433-12.480886 9.3606649-21.274238 9.3606649-4.680332 0-9.077008-1.1346261-13.048199-3.4038782-3.971191-2.269252-7.233241-5.2476454-9.78615-8.7933518v10.4952909z"/><path d="m82.2603878 80.132964-5.8149584 6.0986149-28.0819945-28.6493074v-1.1346261l28.2238227-28.7911357 5.8149585 6.098615 6.2404432-6.098615 28.3656507 28.7911357v1.1346261l-28.3656507 28.6493074zm.4254848-36.5916898-13.6155125 13.4736842 13.7573407 13.331856 13.0481995-13.331856z"/></g></svg>

<?xml version="1.0" encoding="UTF-8" standalone="no"?>
<svg width="512px" height="93px" viewBox="0 0 512 93" version="1.1" xmlns="http://www.w3.org/2000/svg" xmlns:xlink="http://www.w3.org/1999/xlink" preserveAspectRatio="xMidYMid">
	<g fill="#1B6DB2">
		<path d="M456.119668,54.6038781 L503.915789,54.6038781 C503.773961,48.2216066 501.788366,42.5484765 497.533518,37.300831 C493.420499,32.0531856 487.60554,29.500277 479.946814,29.500277 C472.713573,29.500277 467.040443,32.0531856 462.785596,37.1590028 C458.672576,42.4066482 456.403324,48.2216066 456.119668,54.6038781 L456.119668,54.6038781 Z M448.60277,57.865928 C448.60277,48.2216066 451.581163,40.1373961 457.53795,33.4714681 C463.494737,26.8055402 471.011634,23.401662 480.088643,23.401662 C489.732964,23.401662 497.249861,26.6637119 502.781163,33.3296399 C508.312465,39.9955679 511.14903,48.2216066 511.14903,58.2914127 L511.14903,60.1351801 L456.119668,60.1351801 C456.403324,67.6520776 458.956233,73.7506925 463.636565,78.7146814 C468.316898,83.6786704 474.415512,86.2315789 481.93241,86.2315789 C490.725762,86.2315789 497.817175,83.2531856 503.490305,77.1545706 L507.177839,81.834903 C500.370083,88.9263158 491.71856,92.4720222 481.506925,92.4720222 C471.862604,92.4720222 464.06205,89.2099723 457.963435,82.8277008 C451.86482,76.4454294 448.60277,68.0775623 448.60277,57.865928 L448.60277,57.865928 Z M126.79446,57.865928 C126.79446,62.6880886 128.212742,66.5174515 130.907479,69.4958449 C133.602216,72.4742382 137.147922,73.8925208 141.260942,73.8925208 C143.530194,73.8925208 145.799446,73.3252078 148.210526,72.1905817 C150.621607,71.0559557 152.465374,69.6376731 153.883657,67.9357341 L153.883657,47.7961219 C152.465374,46.0941828 150.621607,44.6759003 148.210526,43.5412742 C145.799446,42.4066482 143.530194,41.9811634 141.260942,41.9811634 C137.006094,41.9811634 133.602216,43.399446 130.907479,46.3778393 C128.070914,49.2144044 126.79446,53.0437673 126.79446,57.865928 L126.79446,57.865928 Z M391.020499,81.9767313 L395.275346,76.7290859 C397.544598,79.565651 400.522992,81.834903 404.210526,83.6786704 C407.898061,85.5224377 412.01108,86.3734072 416.549584,86.3734072 C421.939058,86.3734072 426.193906,85.0969529 429.314127,82.6858726 C432.434349,80.132964 434.136288,77.0127424 434.136288,73.0415512 C434.136288,69.7795014 432.718006,67.2265928 429.88144,65.2409972 C427.044875,63.3972299 423.640997,61.8371191 419.527978,60.9861496 C415.556787,59.9933518 411.443767,59.000554 407.330748,57.865928 C403.217729,56.7313019 399.81385,54.8875346 396.835457,52.1927978 C393.998892,49.4980609 392.580609,45.9523546 392.580609,41.6975069 C392.580609,36.4498615 394.708033,32.1950139 398.962881,28.6493075 C403.217729,25.1036011 408.890859,23.401662 416.1241,23.401662 C426.052078,23.401662 433.852632,26.6637119 439.66759,33.0459834 L435.696399,38.0099723 C431.441551,32.1950139 424.917452,29.3584488 416.1241,29.3584488 C411.160111,29.3584488 407.18892,30.4930748 404.210526,32.7623269 C401.232133,35.0315789 399.81385,37.868144 399.81385,41.4138504 C399.81385,44.3922438 401.232133,46.8033241 404.068698,48.5052632 C406.905263,50.2072022 410.309141,51.4836565 414.422161,52.4764543 C418.393352,53.4692521 422.506371,54.4620499 426.477562,55.5966759 C430.448753,56.7313019 433.99446,58.8587258 436.831025,61.6952909 C439.66759,64.531856 441.085873,68.3612188 441.085873,73.0415512 C441.085873,78.7146814 438.958449,83.2531856 434.703601,86.9407202 C430.448753,90.6282548 424.350139,92.3301939 416.549584,92.3301939 C405.628809,92.4720222 397.260942,88.9263158 391.020499,81.9767313 L391.020499,81.9767313 Z M204.374515,50.4908587 L231.463712,50.4908587 C231.180055,47.7961219 229.903601,45.3850416 227.634349,43.399446 C225.506925,41.2720222 222.244875,40.2792244 217.848199,40.2792244 C213.73518,40.2792244 210.47313,41.2720222 208.345706,43.2576177 C206.076454,45.3850416 204.8,47.7961219 204.374515,50.4908587 L204.374515,50.4908587 Z M336.842105,70.6304709 C336.842105,75.3108033 338.544044,79.2819945 341.806094,82.2603878 C345.068144,85.2387812 349.46482,86.798892 354.854294,86.798892 C363.505817,86.798892 370.171745,83.8204986 374.710249,77.7218837 L374.710249,63.3972299 C370.171745,57.298615 363.505817,54.3202216 354.854294,54.3202216 C349.46482,54.3202216 345.209972,55.8803324 341.806094,59.000554 C338.544044,61.9789474 336.842105,65.9501385 336.842105,70.6304709 L336.842105,70.6304709 Z M10.0698061,33.0459834 C16.8775623,26.6637119 25.3872576,23.401662 35.7407202,23.401662 C42.2648199,23.401662 47.7961219,24.5362881 52.334626,26.9473684 C56.8731302,29.3584488 60.2770083,32.1950139 62.5462604,35.598892 L49.2144044,48.2216066 C46.3778393,44.1085873 42.2648199,41.9811634 36.733518,41.9811634 C32.3368421,41.9811634 28.6493075,43.399446 25.6709141,46.2360111 C22.834349,49.0725762 21.2742382,52.9019391 21.2742382,57.865928 C21.2742382,62.8299169 22.6925208,66.6592798 25.6709141,69.4958449 C28.5074792,72.33241 32.1950139,73.8925208 36.733518,73.8925208 C41.9811634,73.8925208 46.0941828,71.765097 49.2144044,67.5102493 L62.8299169,80.2747922 C60.5606648,83.6786704 57.1567867,86.5152355 52.6182825,88.9263158 C48.0797784,91.3373961 42.5484765,92.4720222 36.0243767,92.4720222 C25.6709141,92.4720222 17.1612188,89.2099723 10.3534626,82.8277008 C3.40387812,76.3036011 0,68.0775623 0,57.865928 C0,47.6542936 3.40387812,39.4282548 10.0698061,33.0459834 L10.0698061,33.0459834 Z M329.467036,70.4886427 C329.467036,63.6808864 331.736288,58.2914127 336.274792,54.4620499 C340.813296,50.632687 346.20277,48.6470914 352.443213,48.6470914 C361.66205,48.6470914 369.178947,51.767313 374.852078,58.0077562 L374.852078,44.6759003 C374.852078,39.9955679 373.150139,36.3080332 369.888089,33.6132964 C366.626039,30.9185596 362.371191,29.500277 357.265374,29.500277 C349.039335,29.500277 342.231579,32.7623269 336.558449,39.1445983 L332.587258,34.1806094 C339.395014,26.8055402 347.904709,23.1180055 357.974515,23.1180055 C365.065928,23.1180055 370.880886,24.8199446 375.277562,28.5074792 C379.674238,32.0531856 381.94349,37.300831 381.94349,44.3922438 L381.94349,90.7700831 L374.852078,90.7700831 L374.852078,82.9695291 C369.178947,89.2099723 361.66205,92.3301939 352.443213,92.4720222 C346.344598,92.4720222 340.955125,90.4864266 336.41662,86.5152355 C331.736288,82.5440443 329.467036,77.2963989 329.467036,70.4886427 L329.467036,70.4886427 Z M191.326316,33.3296399 C197.850416,26.6637119 206.218283,23.401662 216.288089,23.401662 C226.216066,23.401662 234.300277,26.8055402 240.54072,33.4714681 C246.781163,40.1373961 249.901385,49.0725762 249.901385,60.1351801 L249.901385,64.9573407 L203.098061,64.9573407 C203.94903,68.2193906 205.65097,70.7722992 208.487535,72.7578947 C211.3241,74.7434903 215.011634,75.7362881 219.550139,75.7362881 C222.103047,75.7362881 224.939612,75.1689751 228.059834,74.1761773 C231.180055,73.1833795 233.732964,71.765097 235.576731,70.2049861 L244.795568,83.9623269 C241.675346,86.798892 237.562327,88.9263158 232.598338,90.3445983 C227.634349,91.9047091 222.528532,92.6138504 217.280886,92.6138504 C206.927424,92.6138504 198.417729,89.4936288 191.609972,83.1113573 C184.802216,76.7290859 181.398338,68.3612188 181.398338,58.0077562 C181.540166,48.0797784 184.802216,39.9955679 191.326316,33.3296399 L191.326316,33.3296399 Z M269.331856,74.3180055 C271.317452,77.5800554 274.295845,80.4166205 278.408864,82.6858726 C282.380055,84.9551247 286.634903,86.0897507 291.031579,86.0897507 C298.26482,86.0897507 303.796122,83.3950139 307.909141,78.1473684 C312.022161,72.899723 314.007756,66.233795 314.007756,58.0077562 C314.007756,49.7817175 312.022161,42.9739612 307.909141,37.7263158 C303.796122,32.4786704 298.26482,29.7839335 291.031579,29.7839335 C286.634903,29.7839335 282.521884,30.9185596 278.408864,33.3296399 C274.295845,35.7407202 271.317452,38.5772853 269.331856,41.8393352 L269.331856,74.3180055 L269.331856,74.3180055 Z M113.462604,32.7623269 C118.852078,26.5218837 125.801662,23.401662 134.311357,23.401662 C142.25374,23.401662 148.777839,26.5218837 153.741828,32.9041551 L153.741828,0 L174.590582,0 L174.590582,90.7700831 L153.741828,90.7700831 L153.741828,83.1113573 C148.352355,89.2099723 141.828255,92.3301939 134.311357,92.4720222 C125.94349,92.4720222 118.993906,89.3518006 113.462604,83.2531856 C110.626039,79.9911357 108.498615,76.1617729 107.080332,71.6232687 L121.12133,57.5822715 L121.12133,56.4476454 L107.647645,42.832133 C109.065928,39.0027701 110.909695,35.598892 113.462604,32.7623269 L113.462604,32.7623269 Z M262.382271,90.7700831 L262.382271,0 L269.473684,0 L269.473684,35.7407202 C275.288643,27.5146814 282.947368,23.5434903 292.308033,23.401662 C301.101385,23.401662 308.192798,26.5218837 313.582271,32.9041551 C318.971745,39.2864266 321.666482,47.6542936 321.666482,58.0077562 C321.666482,68.3612188 318.971745,76.7290859 313.582271,83.1113573 C308.192798,89.3518006 301.101385,92.4720222 292.308033,92.4720222 C287.627701,92.4720222 283.231025,91.3373961 279.259834,89.068144 C275.288643,86.798892 272.026593,83.8204986 269.473684,80.2747922 L269.473684,90.7700831 L262.382271,90.7700831 L262.382271,90.7700831 Z"></path>
		<path d="M82.2603878,80.132964 L76.4454294,86.2315789 L48.3634349,57.5822715 L48.3634349,56.4476454 L76.5872576,27.6565097 L82.4022161,33.7551247 L88.6426593,27.6565097 L117.00831,56.4476454 L117.00831,57.5822715 L88.6426593,86.2315789 L82.2603878,80.132964 L82.2603878,80.132964 Z M82.6858726,43.5412742 L69.0703601,57.0149584 L82.8277008,70.3468144 L95.8759003,57.0149584 L82.6858726,43.5412742 L82.6858726,43.5412742 Z"></path>
	</g>
</svg>
